src/icons/file-config.svg

<svg width="16" height="16" viewBox="0 0 16 16" fill="none" xmlns="http://www.w3.org/2000/svg">
<path fill-rule="evenodd" clip-rule="evenodd" d="M6.27094 1.80565C6.06072 1.60429 5.95561 1.50362 5.87519 1.46811C5.79435 1.43242 5.73735 1.42182 5.64908 1.42609C5.56127 1.43034 5.47393 1.4669 5.29923 1.54002C4.74506 1.77198 4.22707 2.07317 3.75605 2.43277C3.60545 2.54775 3.53014 2.60525 3.48269 2.67908C3.43495 2.75337 3.41573 2.8078 3.40622 2.8956C3.39678 2.98286 3.43132 3.12415 3.50039 3.40673C3.64792 4.01029 3.57206 4.66943 3.23686 5.25C2.90162 5.83066 2.36861 6.22596 1.77204 6.39993C1.49231 6.48151 1.35244 6.5223 1.28148 6.57426C1.21012 6.6265 1.1725 6.67057 1.13209 6.74924C1.09191 6.82747 1.07997 6.92154 1.05608 7.10968C1.01908 7.40124 1 7.69839 1 8C1 8.30161 1.01908 8.59877 1.05609 8.89033C1.07997 9.07847 1.09191 9.17253 1.13209 9.25077C1.1725 9.32943 1.21012 9.3735 1.28148 9.42575C1.35244 9.4777 1.49231 9.51849 1.77204 9.60007C2.36861 9.77405 2.90162 10.1693 3.23686 10.75C3.57206 11.3306 3.64792 11.9897 3.50039 12.5933C3.43132 12.8759 3.39678 13.0171 3.40622 13.1044C3.41573 13.1922 3.43495 13.2466 3.48269 13.3209C3.53014 13.3948 3.60545 13.4523 3.75605 13.5672C4.22707 13.9268 4.74506 14.228 5.29924 14.46C5.47393 14.5331 5.56128 14.5697 5.64908 14.5739C5.73735 14.5782 5.79435 14.5676 5.87519 14.5319C5.95561 14.4964 6.06072 14.3957 6.27094 14.1944C6.71997 13.7643 7.32912 13.5 8 13.5C8.67088 13.5 9.28003 13.7643 9.72906 14.1944C9.93928 14.3957 10.0444 14.4964 10.1248 14.5319C10.2056 14.5676 10.2627 14.5782 10.3509 14.5739C10.4387 14.5697 10.5261 14.5331 10.7008 14.46C11.2549 14.228 11.7729 13.9268 12.2439 13.5672C12.3946 13.4523 12.4699 13.3948 12.5173 13.3209C12.5651 13.2466 12.5843 13.1922 12.5938 13.1044C12.6032 13.0171 12.5687 12.8759 12.4996 12.5933C12.3521 11.9897 12.4279 11.3306 12.7631 10.75C13.0984 10.1693 13.6314 9.77405 14.228 9.60007C14.5077 9.51849 14.6476 9.47771 14.7185 9.42575C14.7899 9.3735 14.8275 9.32944 14.8679 9.25077C14.9081 9.17253 14.92 9.07847 14.9439 8.89033C14.9809 8.59877 15 8.30161 15 8C15 7.69839 14.9809 7.40124 14.9439 7.10968C14.92 6.92154 14.9081 6.82747 14.8679 6.74924C14.8275 6.67057 14.7899 6.6265 14.7185 6.57426C14.6476 6.5223 14.5077 6.48151 14.228 6.39993C13.6314 6.22596 13.0984 5.83066 12.7631 5.25C12.4279 4.66943 12.3521 4.01029 12.4996 3.40673C12.5687 3.12415 12.6032 2.98286 12.5938 2.8956C12.5843 2.8078 12.5651 2.75338 12.5173 2.67908C12.4699 2.60525 12.3946 2.54775 12.2439 2.43277C11.7729 2.07317 11.2549 1.77198 10.7008 1.54002C10.5261 1.4669 10.4387 1.43034 10.3509 1.42609C10.2627 1.42182 10.2056 1.43242 10.1248 1.46811C10.0444 1.50362 9.93928 1.60429 9.72906 1.80565C9.28003 2.23575 8.67088 2.5 8 2.5C7.32912 2.5 6.71997 2.23575 6.27094 1.80565ZM8 10C9.10457 10 10 9.10457 10 8C10 6.89543 9.10457 6 8 6C6.89543 6 6 6.89543 6 8C6 9.10457 6.89543 10 8 10Z" fill="#8080A0"/>
</svg>

<svg xmlns="http://www.w3.org/2000/svg" width="16" height="16" fill="none"><path fill="#8080A0" fill-rule="evenodd" d="M6.27 1.806c-.21-.202-.314-.302-.395-.338a.44.44 0 0 0-.226-.042c-.088.004-.175.04-.35.114a7 7 0 0 0-1.543.893c-.15.115-.226.172-.273.246a.44.44 0 0 0-.077.217c-.01.087.025.228.094.51a2.5 2.5 0 0 1-.263 1.844c-.335.58-.868.976-1.465 1.15-.28.082-.42.122-.49.174a.44.44 0 0 0-.15.175c-.04.078-.052.173-.076.36a7 7 0 0 0 0 1.781c.024.188.036.283.076.36.04.08.078.123.15.176.07.052.21.092.49.174.597.174 1.13.57 1.465 1.15s.41 1.24.263 1.843c-.069.283-.103.424-.094.511.01.088.029.143.077.217.047.074.122.131.273.246.471.36.99.661 1.543.893.175.073.262.11.35.114a.44.44 0 0 0 .226-.042c.08-.036.186-.136.396-.338A2.5 2.5 0 0 1 8 13.5c.67 0 1.28.264 1.73.694.21.202.314.302.395.338.08.036.138.046.226.042s.175-.04.35-.114a7 7 0 0 0 1.543-.893c.15-.115.226-.172.273-.246a.44.44 0 0 0 .077-.217c.01-.087-.025-.228-.094-.51a2.5 2.5 0 0 1 .263-1.844c.335-.58.868-.976 1.465-1.15.28-.082.42-.122.49-.174a.44.44 0 0 0 .15-.175c.04-.078.052-.173.076-.36a7 7 0 0 0 0-1.781c-.024-.188-.036-.283-.076-.36a.44.44 0 0 0-.15-.176c-.07-.052-.21-.092-.49-.174a2.5 2.5 0 0 1-1.465-1.15 2.5 2.5 0 0 1-.263-1.843c.069-.283.103-.424.094-.511a.44.44 0 0 0-.077-.217c-.047-.074-.122-.131-.273-.246A7 7 0 0 0 10.7 1.54c-.175-.073-.262-.11-.35-.114a.44.44 0 0 0-.226.042c-.08.036-.186.136-.396.338A2.5 2.5 0 0 1 8 2.5c-.67 0-1.28-.264-1.73-.694M8 10a2 2 0 1 0 0-4 2 2 0 0 0 0 4" clip-rule="evenodd"/></svg>
